X:1
T:El padrino waltz
T:The Godfather Waltz
T:arr. Dek
T:Nino Rota 
%%score { 1 | 2 }
L:1/8
M:3/4
K:C
V:1 treble nm="Piano" snm="Pno."
V:2 bass 
V:1
"^Cm" z6 | c4 Bc | ^c4 =c2 |"^Fm" c2 ^G4 | z6 | c4 Bc | ^c4 =c2 |"^Cm" c2 G4 | z6 | c4 Bc | %10
 _e4 c2 |"^G" B4 d2 |"^Cm" c6 |"^Fm" ^G2 =G2 ^G2 | c4 ^G2 |"^Cm" G6 | z6 |"^G" G6 | z2 GB cd | %19
"^Cm" _e6 | z6 |"^Fm" _e4 dc |"^G" B4 d2 |"^Cm" c6 | [C_EGc]6 |] %25
V:2
 C,,2 [C,_E,G,]2 [C,E,G,]2 | C,,2 [C,_E,G,]2 [C,E,G,]2 | C,,2 [C,_E,G,]2 [C,E,G,]2 | %3
 F,,2 [F,^G,C]2 [F,G,C]2 | F,,2 [F,^G,C]2 [F,G,C]2 | F,,2 [F,^G,C]2 [F,G,C]2 | %6
 F,,2 [F,^G,C]2 [F,G,C]2 | C,,2 [C,_E,G,]2 [C,E,G,]2 | C,,2 [C,_E,G,]2 [C,E,G,]2 | %9
 C,,2 [C,_E,G,]2 [C,E,G,]2 | C,,2 [C,_E,G,]2 [C,E,G,]2 | G,,2 [G,B,D]2 [G,B,D]2 | %12
 C,,2 [C,_E,G,]2 [C,E,G,]2 | F,,2 [F,^G,C]2 [F,G,C]2 | F,,2 [F,^G,C]2 [F,G,C]2 | %15
 C,,2 [C,_E,G,]2 [C,E,G,]2 | C,,2 [C,_E,G,]2 [C,E,G,]2 | G,,2 [G,B,D]2 [G,B,D]2 | %18
 G,,2 [G,B,D]2 [G,B,D]2 | C,,2 [C,_E,G,]2 [C,E,G,]2 | C,,2 [C,_E,G,]2 [C,E,G,]2 | %21
 F,,2 [F,^G,C]2 [F,G,C]2 | G,,2 [G,B,D]2 [G,B,D]2 | C,,2 [C,_E,G,]2 [C,E,G,]2 | [C,,C,]6 |] %25

